X:165
T:Fighting Paddy. THO5.165, The
M:6/8
L:1/8
B:Thompson's Complete Collection of 200 Favourite Dances Vol.5
F:https://www.libraryofdance.org/manuals/1780c-Thompson-Compleat-5.pdf
Z:vmp. Peter Dunk 2024
Q:3/8=100
K:D
G|(F/G/A)A AFd|BGB AFd|(F/G/A)A AFd|Bed {d}cBA|
(F/G/A)A AFd|BGB AFd|Bgf edc|d3 D2:|
|:e|(f/g/a)f (g/a/b)g|(e/f/g)e (f/g/a)f|(d/e/f)d (e/f/g)e|Bed {d}cBA|
(f/g/a)f (g/a/b)g|(e/f/g)e (f/g/a)f|Bgf {f}edc|d3-d2:|
W:
W:The Gent turn his Partner with his right hand then with his left ./.
W:Cast off one Couple and turn with the right and left hands ./:
W:set 3 and 3 then 3 and 3 sideways :/.
W:Hands six round :/:

